!!!SOCIAL_FUNCTION:	songs with treatment of the sick
!!!PDT:	1932
!!!OTL: No_41_Song_When_Treating_the_Sick_(b).krn
!!!REG: Southwest
!!!LANG: Non-Tone
!!!LING_GROUP: Yuman-Cochimi
**kern
*staff1
=1-
*clefF4
*k[f#c#g#]
*M2/4
4E\
8C#/L
8C#/J
=2
4E\
8C#/L
8C#/J
=3
8E\L
8E\J
8C#/L
8C#/J
=4
(8F#\L
8E\J)
8E\L
8E\J
=5
4E\
8C#/L
8C#/J
=6
8E\L
8E\J
8E\L
8E\J
=7!|:
8r
8C#/
8E\L
8E\J
=8
4E\
8C#/L
8C#/J
=9
8E\L
8E\J
8C#/L
8C#/J
=10
(8F#\L
8E\J)
8E\L
8E\J
=11
4E\
8C#/L
8C#/J
=12
8E\L
8E\J
8C#/L
8C#/J
=13:|!
8r
8C#/
8E\L
8E\J
=14
4E\
8C#/L
8C#/J
=15
8E\L
8E\J
4E\
=16
4E\
8F#\L
8E\J
=17
4F#\
8F#\L
8B\J
=18
4A\
8F#\L
8F#\J
=19
4E\
8C#/L
8C#/J
=20
4E\
8C#/L
8C#/J
=21
8r
8E\
4E\
=22
4E\
8F#/L
8C#/J
=23
4E\
8C#/L
8C#/J
=24
4E\
8r
8C#/
=25
8E\L
8E\J
4E\
=26
4E\
8F#\L
8E\J
=27
4F#\
8F#\L
8B\J
=28
4A\
8F#\L
8F#\J
=29
4E\
8C#/L
8C#/J
=30
4E\
8C#/L
8C#/J
=31
8E\L
8E\J
4E\
=32
4E\
8F#/L
8C#/J
=33
4E\
8C#/L
8C#/J
=34
8E\L
8E\J
4r
=35
4E\
8C#/L
8C#/J
=36
8E\L
8E\J
4E\
=37
8E\L
8E\J
8F#\L
8E\J
=38
4F#\
8F#\L
8B\J
=39
4A\
8F#\L
8F#\J
=40
4E\
8C#/L
8C#/J
=41
4E\
8C#/L
8C#/J
=42
8F#\L
8E\J
8E\L
8E\J
=43
8E/L
8C#/J
8C#/L
8E/J
=44
8E\L
8E\J
4E\
=45
4E\
8F#/L
8C#/J
=46
4E\
8C#/L
8E/J
=47
8r
8E\
4E\
=48
4E\
8F#\L
8E\J
=49
4F#\
8F#\L
8B\J
=50
4A\
8F#\L
8F#\J
=51
4E\
8C#/L
8C#/J
=52
4E\
8C#/L
8E/J
=53
8E\L
8E\J
4E\
=54
4E\
8F#/L
8C#/J
=55
4E\
8C#/L
8E/J
=56
4r
4E\
=57
8E\L
8E\J
8F#\L
8E\J
=58
4F#\
8F#\L
8B\J
=59
4A\
8F#\L
8F#\J
=60
4E\
8C#/L
8C#/J
=61
4E\
8C#/L
8C#/J
=62
8r
8E\
4C#/
=63
!!pagebreak:default
8E\L
8E\J
4E\
=64
4E\
8F#\L
8E\J
=65
4F#\
8F#\L
8B\J
=66
4A\
8F#\L
8F#\J
=67||
*M3/4
4E\
8C#/L
8E/J
8r
8E\
=68||
*M2/4
4E\
4E\
=69
4E\
8r
8E\
=70
8E\L
8F#\J
8C#/L
8E/J
=71
8C#/L
8E/J
8r
8E\
=72
8E\L
8F#\J
4E\
=73
4E\
8r
8E\
=74||
*M3/4
8E\L
8F#\J
4E\
8E\L
8F#\J
=75
4E\
8E\L
8F#\J
8r
8F#\
=76||
*M2/4
4.F#\
8F#\
=77
8F#\L
8E\J
8E/L
8C#/J
=78
8C#/L
8E/J
4E\
=79
2E\
==
*-
